wip/libp2p-docs-new/content/en/docs/assets/hole-punching/libp2p-hole-punching-5.svg

<?xml version="1.0" encoding="UTF-8" standalone="no"?><svg xmlns="http://www.w3.org/2000/svg" xmlns:xlink="http://www.w3.org/1999/xlink" contentScriptType="application/ecmascript" contentStyleType="text/css" height="473px" preserveAspectRatio="none" style="width:500px;height:473px;" version="1.1" viewBox="0 0 500 473" width="500px" zoomAndPan="magnify"><defs><filter height="300%" id="f1w23tzivmh2fs" width="300%" x="-1" y="-1"><feGaussianBlur result="blurOut" stdDeviation="2.0"/><feColorMatrix in="blurOut" result="blurOut2" type="matrix" values="0 0 0 0 0 0 0 0 0 0 0 0 0 0 0 0 0 0 .4 0"/><feOffset dx="4.0" dy="4.0" in="blurOut2" result="blurOut3"/><feBlend in="SourceGraphic" in2="blurOut3" mode="normal"/></filter></defs><g><rect fill="#FFFFFF" filter="url(#f1w23tzivmh2fs)" height="352.8828" style="stroke: #000000; stroke-width: 2.0;" width="476" x="13" y="59.2969"/><rect fill="#FFFFFF" filter="url(#f1w23tzivmh2fs)" height="46.2656" style="stroke: #000000; stroke-width: 2.0;" width="390" x="23" y="142.8281"/><rect fill="#FFFFFF" filter="url(#f1w23tzivmh2fs)" height="202.0859" style="stroke: #000000; stroke-width: 2.0;" width="382" x="23" y="203.0938"/><rect fill="#FFFFFF" height="87.0078" style="stroke: none; stroke-width: 1.0;" width="382" x="23" y="318.1719"/><line style="stroke: #A80036; stroke-width: 1.0; stroke-dasharray: 5.0,5.0;" x1="47" x2="47" y1="42.2969" y2="429.1797"/><line style="stroke: #A80036; stroke-width: 1.0; stroke-dasharray: 5.0,5.0;" x1="268" x2="268" y1="42.2969" y2="429.1797"/><rect fill="#FEFECE" filter="url(#f1w23tzivmh2fs)" height="30.2969" style="stroke: #A80036; stroke-width: 1.5;" width="24" x="33" y="7"/><text fill="#000000" font-family="sans-serif" font-size="14" lengthAdjust="spacingAndGlyphs" textLength="10" x="40" y="26.9951">B</text><rect fill="#FEFECE" filter="url(#f1w23tzivmh2fs)" height="30.2969" style="stroke: #A80036; stroke-width: 1.5;" width="24" x="33" y="428.1797"/><text fill="#000000" font-family="sans-serif" font-size="14" lengthAdjust="spacingAndGlyphs" textLength="10" x="40" y="448.1748">B</text><rect fill="#FEFECE" filter="url(#f1w23tzivmh2fs)" height="30.2969" style="stroke: #A80036; stroke-width: 1.5;" width="100" x="218" y="3"/><rect fill="#FEFECE" filter="url(#f1w23tzivmh2fs)" height="30.2969" style="stroke: #A80036; stroke-width: 1.5;" width="100" x="214" y="7"/><text fill="#000000" font-family="sans-serif" font-size="14" lengthAdjust="spacingAndGlyphs" textLength="86" x="221" y="26.9951">Other_Peers</text><rect fill="#FEFECE" filter="url(#f1w23tzivmh2fs)" height="30.2969" style="stroke: #A80036; stroke-width: 1.5;" width="100" x="218" y="428.1797"/><rect fill="#FEFECE" filter="url(#f1w23tzivmh2fs)" height="30.2969" style="stroke: #A80036; stroke-width: 1.5;" width="100" x="214" y="432.1797"/><text fill="#000000" font-family="sans-serif" font-size="14" lengthAdjust="spacingAndGlyphs" textLength="86" x="221" y="452.1748">Other_Peers</text><path d="M13,59.2969 L484,59.2969 L484,66.2969 L474,76.2969 L13,76.2969 L13,59.2969 " fill="#EEEEEE" style="stroke: #000000; stroke-width: 1.0;"/><rect fill="none" height="352.8828" style="stroke: #000000; stroke-width: 2.0;" width="476" x="13" y="59.2969"/><text fill="#000000" font-family="sans-serif" font-size="13" font-weight="bold" lengthAdjust="spacingAndGlyphs" textLength="426" x="28" y="72.3638">B determining whether it is dialable via AutoNAT protocol</text><polygon fill="#A80036" points="256,123.8281,266,127.8281,256,131.8281,260,127.8281" style="stroke: #A80036; stroke-width: 1.0;"/><line style="stroke: #A80036; stroke-width: 1.0;" x1="47" x2="262" y1="127.8281" y2="127.8281"/><text fill="#000000" font-family="sans-serif" font-size="13" lengthAdjust="spacingAndGlyphs" textLength="88" x="54" y="92.4966">DialRequest {</text><text fill="#000000" font-family="sans-serif" font-size="13" lengthAdjust="spacingAndGlyphs" textLength="189" x="62" y="107.6294">supposedly_public_addresses</text><text fill="#000000" font-family="sans-serif" font-size="13" lengthAdjust="spacingAndGlyphs" textLength="8" x="54" y="122.7622">}</text><path d="M23,142.8281 L408,142.8281 L408,149.8281 L398,159.8281 L23,159.8281 L23,142.8281 " fill="#EEEEEE" style="stroke: #000000; stroke-width: 1.0;"/><rect fill="none" height="46.2656" style="stroke: #000000; stroke-width: 2.0;" width="390" x="23" y="142.8281"/><text fill="#000000" font-family="sans-serif" font-size="13" font-weight="bold" lengthAdjust="spacingAndGlyphs" textLength="340" x="38" y="155.895">For each provided supposedly public address</text><polygon fill="#A80036" points="58,177.0938,48,181.0938,58,185.0938,54,181.0938" style="stroke: #A80036; stroke-width: 1.0;"/><line style="stroke: #A80036; stroke-width: 1.0;" x1="52" x2="267" y1="181.0938" y2="181.0938"/><text fill="#000000" font-family="sans-serif" font-size="13" lengthAdjust="spacingAndGlyphs" textLength="24" x="64" y="176.0278">Dial</text><path d="M23,203.0938 L87,203.0938 L87,210.0938 L77,220.0938 L23,220.0938 L23,203.0938 " fill="#EEEEEE" style="stroke: #000000; stroke-width: 1.0;"/><rect fill="none" height="202.0859" style="stroke: #000000; stroke-width: 2.0;" width="382" x="23" y="203.0938"/><text fill="#000000" font-family="sans-serif" font-size="13" font-weight="bold" lengthAdjust="spacingAndGlyphs" textLength="19" x="38" y="216.1606">alt</text><text fill="#000000" font-family="sans-serif" font-size="11" font-weight="bold" lengthAdjust="spacingAndGlyphs" textLength="185" x="102" y="215.3042">[One of the dials succeeded.</text><text fill="#000000" font-family="sans-serif" font-size="11" font-weight="bold" lengthAdjust="spacingAndGlyphs" textLength="298" x="102" y="228.1089">Thus B is dialable. No need for Hole Punching.</text><text fill="#000000" font-family="sans-serif" font-size="11" font-weight="bold" lengthAdjust="spacingAndGlyphs" textLength="102" x="102" y="240.9136">Don't continue.]</text><polygon fill="#A80036" points="58,306.1719,48,310.1719,58,314.1719,54,310.1719" style="stroke: #A80036; stroke-width: 1.0;"/><line style="stroke: #A80036; stroke-width: 1.0;" x1="52" x2="267" y1="310.1719" y2="310.1719"/><text fill="#000000" font-family="sans-serif" font-size="13" lengthAdjust="spacingAndGlyphs" textLength="95" x="64" y="259.7075">DialOutcome {</text><text fill="#000000" font-family="sans-serif" font-size="13" lengthAdjust="spacingAndGlyphs" textLength="27" x="72" y="274.8403">"Ok"</text><text fill="#000000" font-family="sans-serif" font-size="13" lengthAdjust="spacingAndGlyphs" textLength="124" x="72" y="289.9731">successful_address</text><text fill="#000000" font-family="sans-serif" font-size="13" lengthAdjust="spacingAndGlyphs" textLength="8" x="64" y="305.106">}</text><line style="stroke: #000000; stroke-width: 1.0; stroke-dasharray: 2.0,2.0;" x1="23" x2="405" y1="319.1719" y2="319.1719"/><text fill="#000000" font-family="sans-serif" font-size="11" font-weight="bold" lengthAdjust="spacingAndGlyphs" textLength="192" x="28" y="329.3823">[None of the dials succeeded.</text><text fill="#000000" font-family="sans-serif" font-size="11" font-weight="bold" lengthAdjust="spacingAndGlyphs" textLength="339" x="28" y="342.187">Thus not dialable. Hole Punching needed. Continue.]</text><polygon fill="#A80036" points="58,393.1797,48,397.1797,58,401.1797,54,397.1797" style="stroke: #A80036; stroke-width: 1.0;"/><line style="stroke: #A80036; stroke-width: 1.0;" x1="52" x2="267" y1="397.1797" y2="397.1797"/><text fill="#000000" font-family="sans-serif" font-size="13" lengthAdjust="spacingAndGlyphs" textLength="95" x="64" y="361.8481">DialOutcome {</text><text fill="#000000" font-family="sans-serif" font-size="13" lengthAdjust="spacingAndGlyphs" textLength="41" x="72" y="376.981">"Error"</text><text fill="#000000" font-family="sans-serif" font-size="13" lengthAdjust="spacingAndGlyphs" textLength="8" x="64" y="392.1138">}</text><!--MD5=[6b043e1af7e35b671abebfee55fbe1fe]
@startuml
participant B
collections Other_Peers

group B determining whether it is dialable via AutoNAT protocol
        B -> Other_Peers: DialRequest {\n  supposedly_public_addresses\n}
        group For each provided supposedly public address
                Other_Peers -> B: Dial
        end
        alt One of the dials succeeded.\nThus B is dialable. No need for Hole Punching.\nDon't continue.
                Other_Peers -> B: DialOutcome {\n  "Ok"\n  successful_address\n}
        else None of the dials succeeded.\nThus not dialable. Hole Punching needed. Continue.
                Other_Peers -> B: DialOutcome {\n  "Error"\n}
        end
end
@enduml

PlantUML version 1.2020.02(Sun Mar 01 11:22:07 CET 2020)
(GPL source distribution)
Java Runtime: OpenJDK Runtime Environment
JVM: OpenJDK 64-Bit Server VM
Java Version: 11.0.14+9-post-Debian-1deb11u1
Operating System: Linux
Default Encoding: UTF-8
Language: en
Country: US
--></g></svg>

<?xml version="1.0" encoding="UTF-8"?>
<svg style="height:473px;width:500px" contentScriptType="application/ecmascript" contentStyleType="text/css" preserveAspectRatio="none" version="1.1" viewBox="0 0 500 473" xmlns="http://www.w3.org/2000/svg" zoomAndPan="magnify">
<defs>
<filter id="a" x="-1" y="-1" width="300%" height="300%">
<feGaussianBlur result="blurOut" stdDeviation="2.0"/>
<feColorMatrix in="blurOut" result="blurOut2" values="0 0 0 0 0 0 0 0 0 0 0 0 0 0 0 0 0 0 .4 0"/>
<feOffset dx="4.0" dy="4.0" in="blurOut2" result="blurOut3"/>
<feBlend in="SourceGraphic" in2="blurOut3"/>
</filter>
</defs>
<rect x="13" y="59.297" width="476" height="352.88" fill="#fff" filter="url(#a)" stroke="#000" stroke-width="2"/>
<rect x="23" y="142.83" width="390" height="46.266" fill="#fff" filter="url(#a)" stroke="#000" stroke-width="2"/>
<rect x="23" y="203.09" width="382" height="202.09" fill="#fff" filter="url(#a)" stroke="#000" stroke-width="2"/>
<rect x="23" y="318.17" width="382" height="87.008" fill="#fff"/>
<line x1="47" x2="47" y1="42.297" y2="429.18" stroke="#A80036" stroke-dasharray="5.0,5.0"/>
<line x1="268" x2="268" y1="42.297" y2="429.18" stroke="#A80036" stroke-dasharray="5.0,5.0"/>
<rect x="33" y="7" width="24" height="30.297" fill="#FEFECE" filter="url(#a)" stroke="#A80036" stroke-width="1.5"/>
<text x="40" y="26.9951" fill="#000000" font-family="sans-serif" font-size="14" lengthAdjust="spacingAndGlyphs" textLength="10">B</text>
<rect x="33" y="428.18" width="24" height="30.297" fill="#FEFECE" filter="url(#a)" stroke="#A80036" stroke-width="1.5"/>
<text x="40" y="448.1748" fill="#000000" font-family="sans-serif" font-size="14" lengthAdjust="spacingAndGlyphs" textLength="10">B</text>
<rect x="218" y="3" width="100" height="30.297" fill="#FEFECE" filter="url(#a)" stroke="#A80036" stroke-width="1.5"/>
<rect x="214" y="7" width="100" height="30.297" fill="#FEFECE" filter="url(#a)" stroke="#A80036" stroke-width="1.5"/>
<text x="221" y="26.9951" fill="#000000" font-family="sans-serif" font-size="14" lengthAdjust="spacingAndGlyphs" textLength="86">Other_Peers</text>
<rect x="218" y="428.18" width="100" height="30.297" fill="#FEFECE" filter="url(#a)" stroke="#A80036" stroke-width="1.5"/>
<rect x="214" y="432.18" width="100" height="30.297" fill="#FEFECE" filter="url(#a)" stroke="#A80036" stroke-width="1.5"/>
<text x="221" y="452.1748" fill="#000000" font-family="sans-serif" font-size="14" lengthAdjust="spacingAndGlyphs" textLength="86">Other_Peers</text>
<path d="m13 59.297h471v7l-10 10h-461v-17" fill="#eee" stroke="#000"/>
<rect x="13" y="59.297" width="476" height="352.88" fill="none" stroke="#000" stroke-width="2"/>
<text x="28" y="72.3638" fill="#000000" font-family="sans-serif" font-size="13" font-weight="bold" lengthAdjust="spacingAndGlyphs" textLength="426">B determining whether it is dialable via AutoNAT protocol</text>
<polygon points="256 123.83 266 127.83 256 131.83 260 127.83" fill="#A80036" stroke="#A80036"/>
<line x1="47" x2="262" y1="127.83" y2="127.83" stroke="#A80036"/>
<text x="54" y="92.4966" fill="#000000" font-family="sans-serif" font-size="13" lengthAdjust="spacingAndGlyphs" textLength="88">DialRequest {</text>
<text x="62" y="107.6294" fill="#000000" font-family="sans-serif" font-size="13" lengthAdjust="spacingAndGlyphs" textLength="189">supposedly_public_addresses</text>
<text x="54" y="122.7622" fill="#000000" font-family="sans-serif" font-size="13" lengthAdjust="spacingAndGlyphs" textLength="8">}</text>
<path d="m23 142.83h385v7l-10 10h-375v-17" fill="#eee" stroke="#000"/>
<rect x="23" y="142.83" width="390" height="46.266" fill="none" stroke="#000" stroke-width="2"/>
<text x="38" y="155.895" fill="#000000" font-family="sans-serif" font-size="13" font-weight="bold" lengthAdjust="spacingAndGlyphs" textLength="340">For each provided supposedly public address</text>
<polygon points="58 177.09 48 181.09 58 185.09 54 181.09" fill="#A80036" stroke="#A80036"/>
<line x1="52" x2="267" y1="181.09" y2="181.09" stroke="#A80036"/>
<text x="64" y="176.0278" fill="#000000" font-family="sans-serif" font-size="13" lengthAdjust="spacingAndGlyphs" textLength="24">Dial</text>
<path d="m23 203.09h64v7l-10 10h-54v-17" fill="#eee" stroke="#000"/>
<rect x="23" y="203.09" width="382" height="202.09" fill="none" stroke="#000" stroke-width="2"/>
<text x="38" y="216.1606" fill="#000000" font-family="sans-serif" font-size="13" font-weight="bold" lengthAdjust="spacingAndGlyphs" textLength="19">alt</text>
<text x="102" y="215.3042" fill="#000000" font-family="sans-serif" font-size="11" font-weight="bold" lengthAdjust="spacingAndGlyphs" textLength="185">[One of the dials succeeded.</text>
<text x="102" y="228.1089" fill="#000000" font-family="sans-serif" font-size="11" font-weight="bold" lengthAdjust="spacingAndGlyphs" textLength="298">Thus B is dialable. No need for Hole Punching.</text>
<text x="102" y="240.9136" fill="#000000" font-family="sans-serif" font-size="11" font-weight="bold" lengthAdjust="spacingAndGlyphs" textLength="102">Don't continue.]</text>
<polygon points="58 306.17 48 310.17 58 314.17 54 310.17" fill="#A80036" stroke="#A80036"/>
<line x1="52" x2="267" y1="310.17" y2="310.17" stroke="#A80036"/>
<text x="64" y="259.7075" fill="#000000" font-family="sans-serif" font-size="13" lengthAdjust="spacingAndGlyphs" textLength="95">DialOutcome {</text>
<text x="72" y="274.8403" fill="#000000" font-family="sans-serif" font-size="13" lengthAdjust="spacingAndGlyphs" textLength="27">"Ok"</text>
<text x="72" y="289.9731" fill="#000000" font-family="sans-serif" font-size="13" lengthAdjust="spacingAndGlyphs" textLength="124">successful_address</text>
<text x="64" y="305.106" fill="#000000" font-family="sans-serif" font-size="13" lengthAdjust="spacingAndGlyphs" textLength="8">}</text>
<line x1="23" x2="405" y1="319.17" y2="319.17" stroke="#000" stroke-dasharray="2.0,2.0"/>
<text x="28" y="329.3823" fill="#000000" font-family="sans-serif" font-size="11" font-weight="bold" lengthAdjust="spacingAndGlyphs" textLength="192">[None of the dials succeeded.</text>
<text x="28" y="342.187" fill="#000000" font-family="sans-serif" font-size="11" font-weight="bold" lengthAdjust="spacingAndGlyphs" textLength="339">Thus not dialable. Hole Punching needed. Continue.]</text>
<polygon points="58 393.18 48 397.18 58 401.18 54 397.18" fill="#A80036" stroke="#A80036"/>
<line x1="52" x2="267" y1="397.18" y2="397.18" stroke="#A80036"/>
<text x="64" y="361.8481" fill="#000000" font-family="sans-serif" font-size="13" lengthAdjust="spacingAndGlyphs" textLength="95">DialOutcome {</text>
<text x="72" y="376.981" fill="#000000" font-family="sans-serif" font-size="13" lengthAdjust="spacingAndGlyphs" textLength="41">"Error"</text>
<text x="64" y="392.1138" fill="#000000" font-family="sans-serif" font-size="13" lengthAdjust="spacingAndGlyphs" textLength="8">}</text>
</svg>
